; HEADER_BLOCK_START
; generated by OrcaSlicer 2.3.0 on 2025-08-29 at 12:41:42
; total layer number: 20
;_GP_TOTAL_LAYER_NUMBER_PLACEHOLDER
; filament_density: 1.24
; filament_diameter: 1.75
; max_z_height: 4.00
; HEADER_BLOCK_END

; THUMBNAIL_BLOCK_START

;
; THUMBNAIL_BLOCK_END

; THUMBNAIL_BLOCK_START

;
; THUMBNAIL_BLOCK_END

; external perimeters extrusion width = 0.40mm
; perimeters extrusion width = 0.44mm
; infill extrusion width = 0.45mm
; solid infill extrusion width = 0.42mm
; top infill extrusion width = 0.42mm
; support material extrusion width = 0.42mm
; first layer extrusion width = 0.42mm

; EXECUTABLE_BLOCK_START
M73 P0 R19
M201 X9000 Y9000 Z500 E5000
M203 X500 Y500 Z12 E120
M204 P1500 R1500 T1500
M205 X10.00 Y10.00 Z0.20 E2.50 ; sets the jerk limits, mm/sec
;TYPE:Custom
G28
G92 E0
G0 X300 Y5 Z50 F3600
M190 S47
M109 S195
G92 E-19
M106 P3 S255
G90
G21
M83 ; use relative distances for extrusion
M900 K0.031; Override pressure advance value
M106 S0
;LAYER_CHANGE
;Z:0.2
;HEIGHT:0.2
;BEFORE_LAYER_CHANGE
;0.2
G92 E0

G1 E-2 F2400
;TIMELAPSE_TAKE_FRAME

;_SET_FAN_SPEED_CHANGING_LAYER
M204 S500
M205 X8 Y8
G1 X128.92 Y103.268 F7200
G1 Z.6
G1 Z.2
G1 E2 F2400
;TYPE:Skirt
;WIDTH:0.42
G1 F3000
G1 X129.31 Y102.957 E.01566
G1 X130.38 Y102.335 E.0388
G1 X131.179 Y102.048 E.0266
G1 X131.948 Y101.885 E.02467
G1 X154.724 Y99.31 E.71866
G1 X158.404 Y99.296 E.11538
G1 X159.86 Y99.749 E.0478
G1 X160.805 Y100.59 E.0397
M73 P1 R19
G1 X161.43 Y101.694 E.03978
G1 X171.957 Y131.451 E.98964
G1 X172.337 Y133.145 E.05446
G1 X172.426 Y134.142 E.03139
G1 X172.408 Y135.952 E.05673
G1 X172.191 Y137.568 E.05113
G1 X171.93 Y138.391 E.02708
G1 X171.561 Y139.138 E.02612
G1 X171.067 Y139.843 E.02698
G1 X170.17 Y140.707 E.03905
G1 X167.431 Y142.383 E.10068
G1 X153.203 Y150.05 E.50677
G1 X152.262 Y150.4 E.03147
G1 X150.817 Y150.601 E.04577
G1 X134.106 Y149.691 E.52474
G1 X133.259 Y149.558 E.02686
G1 X132.398 Y149.301 E.0282
G1 X131.294 Y148.764 E.03848
G1 X130.555 Y148.24 E.02841
G1 X129.907 Y147.63 E.0279
G1 X129.246 Y146.763 E.03418
G1 X128.753 Y145.824 E.03326
G1 X128.008 Y143.844 E.06633
G1 X127.626 Y141.987 E.05944
G1 X127.535 Y140.925 E.03343
G1 X127.7 Y107.203 E1.05733
G1 X127.735 Y106.241 E.0302
G1 X128.026 Y104.672 E.05001
G1 X128.898 Y103.302 E.05094
G1 X129.155 Y103.563 F7200
G1 F3000
G1 X129.545 Y103.251 E.01566
G1 X130.519 Y102.686 E.03532
G1 X131.266 Y102.415 E.02489
G1 X131.991 Y102.259 E.02325
G1 X154.763 Y99.685 E.71857
G1 X158.404 Y99.673 E.11414
G1 X159.646 Y100.059 E.04077
G1 X160.521 Y100.838 E.03674
G1 X161.075 Y101.82 E.03536
G1 X171.595 Y131.556 E.98897
G1 X171.961 Y133.182 E.05225
G1 X172.049 Y134.152 E.03054
G1 X172.032 Y135.935 E.05592
G1 X171.82 Y137.499 E.04947
G1 X171.575 Y138.264 E.0252
G1 X171.229 Y138.96 E.02438
G1 X170.767 Y139.615 E.02513
G1 X169.953 Y140.398 E.03541
G1 X167.239 Y142.059 E.09977
G1 X153.024 Y149.718 E.50627
G1 X152.145 Y150.042 E.02937
G1 X150.832 Y150.224 E.04157
G1 X134.126 Y149.314 E.52458
G1 X133.326 Y149.187 E.0254
G1 X132.516 Y148.943 E.02655
G1 X131.503 Y148.45 E.03531
G1 X130.806 Y147.959 E.02672
G1 X130.194 Y147.386 E.02629
G1 X129.579 Y146.585 E.03166
G1 X129.099 Y145.674 E.03229
G1 X128.374 Y143.753 E.06437
G1 X127.998 Y141.926 E.05849
G1 X127.911 Y140.896 E.0324
G1 X128.077 Y107.205 E1.05637
G1 X128.109 Y106.289 E.02875
G1 X128.392 Y104.761 E.04873
G1 X129.133 Y103.597 E.04327
; printing object angrycat_real.stl id:15 copy 0
G1 E-1.4 F2400
;WIPE_START
G1 F3000
G1 X129.545 Y103.251 E-.32246
G1 X129.945 Y103.019 E-.27754
;WIPE_END
G1 X133.202 Y109.922 Z.6 F7200
G1 X150.903 Y147.435 Z.6
G1 Z.2
G1 E2 F2400
;TYPE:Inner wall
;WIDTH:0.421607
G1 F1200
G1 X150.468 Y147.43 E.01369
;WIDTH:0.423761
G1 X150.037 Y147.336 E.01398
G1 X149.596 Y147.154 E.01511
;WIDTH:0.420384
G1 X149.113 Y146.808 E.01863
;WIDTH:0.415521
G1 X148.771 Y146.431 E.01577
;WIDTH:0.415809
G1 X148.495 Y145.953 E.01713
;WIDTH:0.421952
G1 X148.337 Y145.459 E.01634
;WIDTH:0.42399
G1 X148.288 Y145.021 E.01395
G1 X148.324 Y144.538 E.01537
;WIDTH:0.419463
G1 X148.507 Y143.957 E.01905
;WIDTH:0.417004
G1 X148.818 Y143.435 E.01892
;WIDTH:0.419999
G1 X149.095 Y142.986 E.01652
G1 X149.22 Y142.635 E.0117
G1 X149.308 Y142.072 E.01784
G1 X149.245 Y141.525 E.01727
G1 X149.076 Y141.136 E.01329
G1 X148.889 Y140.983 E.00758
G1 X148.492 Y140.887 E.0128
G1 X147.887 Y140.582 E.02125
G1 X147.205 Y140.168 E.02502
G1 X146.557 Y139.706 E.02495
G1 X145.945 Y139.189 E.02512
G1 X138.052 Y131.635 E.34255
G1 X137.801 Y131.496 E.00898
G1 X137.516 Y131.497 E.00895
G1 X137.199 Y131.717 E.01208
G1 X133.384 Y137.103 E.20694
G1 X133.097 Y137.569 E.01716
G1 X132.874 Y138.041 E.01639
G1 X132.703 Y138.545 E.01668
G1 X132.587 Y139.067 E.01677
G1 X132.532 Y139.597 E.0167
G1 X132.533 Y140.101 E.0158
G1 X132.693 Y142.89 E.0876
G1 X132.75 Y143.393 E.01584
G1 X132.921 Y143.928 E.01762
G1 X133.179 Y144.393 E.01667
G1 X133.536 Y144.815 E.01733
G1 X134.026 Y145.199 E.0195
G1 X134.486 Y145.424 E.01608
G1 X134.95 Y145.553 E.0151
G1 X135.533 Y145.599 E.01833
G1 X137.683 Y145.366 E.0678
G1 X137.8 Y145.381 E.00371
G1 X137.837 Y145.469 E.00299
G1 X137.731 Y145.553 E.00426
G1 X135.661 Y146.416 E.07032
G1 X135.053 Y146.535 E.01941
G1 X134.418 Y146.548 E.01993
G1 X133.901 Y146.47 E.0164
G1 X133.422 Y146.319 E.01575
G1 X132.971 Y146.092 E.01583
G1 X132.435 Y145.692 E.02096
G1 X131.996 Y145.22 E.02021
G1 X131.636 Y144.547 E.02393
G1 X131.319 Y143.816 E.025
G1 X131.062 Y143.062 E.02496
G1 X130.871 Y142.287 E.02503
G1 X130.741 Y141.501 E.02497
G1 X130.681 Y140.707 E.02496
G1 X130.683 Y139.909 E.02502
G1 X130.753 Y139.114 E.02503
G1 X130.888 Y138.33 E.02496
G1 X131.087 Y137.557 E.02503
G1 X131.349 Y136.804 E.02498
G1 X131.672 Y136.075 E.025
G1 X132.061 Y135.367 E.02533
G1 X135.63 Y129.425 E.21735
G1 X135.843 Y128.874 E.01851
G1 X135.965 Y128.34 E.01719
G1 X136.006 Y127.798 E.01702
G1 X135.969 Y127.252 E.01716
G1 X135.852 Y126.719 E.01711
G1 X135.669 Y126.227 E.01647
G1 X135.181 Y125.229 E.03483
G1 X134.757 Y124.214 E.0345
G1 X134.397 Y123.175 E.03446
G1 X134.1 Y122.116 E.03448
G1 X133.866 Y121.042 E.03446
G1 X133.697 Y119.956 E.03446
G1 X133.592 Y118.861 E.03449
G1 X133.555 Y117.761 E.03453
G1 X133.496 Y117.528 E.00753
G1 X133.146 Y116.824 E.02464
G1 X132.869 Y116.103 E.02422
G1 X132.66 Y115.358 E.02426
G1 X132.518 Y114.596 E.02429
G1 X132.449 Y113.826 E.02424
G1 X132.453 Y113.054 E.02423
G1 X132.544 Y112.155 E.02832
G1 X132.555 Y111.572 E.01828
G1 X132.432 Y110.986 E.01877
G1 X132.234 Y110.562 E.01467
G1 X131.963 Y110.185 E.01454
G1 X131.678 Y109.916 E.01229
G1 X131.418 Y109.457 E.01656
G1 X131.188 Y108.917 E.01839
G1 X131.014 Y108.357 E.01839
G1 X130.903 Y107.784 E.01832
G1 X130.86 Y107.285 E.01568
G1 X130.864 Y106.699 E.01837
G1 X130.923 Y106.173 E.0166
G1 X131.043 Y105.607 E.01815
G1 X131.281 Y105.425 E.00939
G1 X131.844 Y105.147 E.0197
G1 X132.329 Y105.015 E.01574
G1 X132.822 Y104.99 E.01547
G1 X133.487 Y105.089 E.02109
M73 P2 R19
G1 X133.876 Y105.3 E.01387
G1 X134.141 Y105.644 E.01363
G1 X134.24 Y106.068 E.01363
G1 X134.12 Y106.744 E.02154
G1 X134.169 Y107.441 E.02191
G1 X134.26 Y107.897 E.01456
G1 X134.461 Y108.561 E.02175
G1 X135.372 Y110.684 E.07243
G1 X135.581 Y111.212 E.01781
G1 X135.7 Y111.73 E.01667
G1 X135.741 Y112.241 E.01606
G1 X135.931 Y113.368 E.03585
G1 X136.187 Y114.434 E.03435
G1 X136.517 Y115.48 E.0344
G1 X136.76 Y116.139 E.02203
G1 X137.123 Y116.97 E.02842
G1 X137.611 Y117.908 E.03317
G1 X137.961 Y118.351 E.01771
G1 X138.37 Y118.743 E.01777
G1 X138.83 Y119.074 E.01777
G1 X139.333 Y119.34 E.01783
G1 X139.867 Y119.531 E.01778
G1 X140.421 Y119.647 E.01776
G1 X141.038 Y119.677 E.01938
G1 X141.509 Y119.492 E.01586
G1 X142.012 Y119.398 E.01604
G1 X142.528 Y119.423 E.01619
G1 X143.012 Y119.586 E.01602
G1 X143.479 Y119.877 E.01725
G1 X143.682 Y119.966 E.00696
G1 X144.884 Y120.233 E.03861
G1 X146.094 Y120.443 E.03849
G1 X147.309 Y120.592 E.03838
G1 X147.689 Y120.592 E.01192
G1 X148.112 Y120.503 E.01356
G1 X148.504 Y120.319 E.01357
G1 X148.842 Y120.055 E.01344
G1 X149.114 Y119.719 E.01355
G1 X149.326 Y119.269 E.0156
G1 X154.394 Y103.195 E.52846
G1 X154.57 Y102.681 E.01702
G1 X154.775 Y102.501 E.00856
G1 X155.023 Y102.448 E.00797
G1 X158.175 Y102.448 E.09881
G1 X158.275 Y102.485 E.00335
G1 X158.455 Y102.752 E.0101
G1 X158.488 Y103.073 E.0101
G1 X158.365 Y103.37 E.01009
G1 X158.189 Y103.525 E.00735
G1 X157.644 Y103.845 E.01982
G1 X156.993 Y104.066 E.02154
G1 X156.519 Y104.13 E.01502
G1 X156.268 Y104.224 E.00838
G1 X156.06 Y104.365 E.0079
G1 X155.791 Y104.628 E.01178
G1 X155.583 Y104.939 E.01172
G1 X155.444 Y105.292 E.0119
G1 X155.379 Y105.729 E.01386
G1 X155.152 Y117.307 E.36308
G1 X155.186 Y117.863 E.01745
G1 X155.294 Y118.392 E.01696
G1 X155.46 Y118.865 E.01571
G1 X157.149 Y122.817 E.13474
G1 X157.46 Y123.467 E.02261
G1 X157.766 Y123.893 E.01644
G1 X158.199 Y124.31 E.01884
G1 X158.664 Y124.626 E.01763
G1 X160.41 Y125.445 E.06048
G1 X161.642 Y126.089 E.04357
G1 X162.845 Y126.784 E.04358
G1 X164.02 Y127.529 E.04361
G1 X165.165 Y128.319 E.04361
G1 X166.273 Y129.158 E.0436
G1 X167.368 Y130.062 E.04452
G1 X167.797 Y130.476 E.0187
G1 X168.16 Y130.91 E.01773
G1 X168.483 Y131.395 E.01828
G1 X168.769 Y131.95 E.01956
G1 X169.007 Y132.598 E.02165
G1 X169.157 Y133.231 E.02039
G1 X169.276 Y134.265 E.03264
G1 X169.293 Y135.038 E.02423
G1 X169.221 Y136.132 E.03437
G1 X169.149 Y136.684 E.01747
G1 X168.992 Y137.244 E.01822
G1 X168.756 Y137.672 E.01533
G1 X168.352 Y138.123 E.01899
G1 X168.004 Y138.376 E.01349
G1 X165.849 Y139.655 E.07857
G1 X165.461 Y139.785 E.01284
G1 X165.08 Y139.739 E.01204
G1 X164.757 Y139.536 E.01194
G1 X164.587 Y139.289 E.00942
G1 X164.598 Y139.124 E.00518
G1 X164.778 Y138.648 E.01595
G1 X165.145 Y138.178 E.0187
G1 X165.547 Y137.905 E.01525
G1 X165.864 Y137.82 E.01028
G1 X166.316 Y137.826 E.01416
G1 X166.726 Y137.768 E.01297
G1 X167.086 Y137.627 E.01215
G1 X167.359 Y137.443 E.01029
G1 X167.674 Y137.124 E.01407
G1 X167.872 Y136.787 E.01225
G1 X167.99 Y136.415 E.01224
G1 X168.026 Y135.964 E.01419
G1 X167.908 Y133.91 E.06449
G1 X167.819 Y133.53 E.01226
G1 X167.638 Y133.162 E.01287
G1 X167.369 Y132.845 E.01301
G1 X167.057 Y132.619 E.01209
G1 X166.194 Y131.874 E.03575
G1 X165.369 Y131.063 E.03626
G1 X164.59 Y130.191 E.03668
G1 X164.21 Y129.887 E.01524
G1 X163.791 Y129.657 E.01499
G1 X163.251 Y129.479 E.01784
G1 X162.112 Y129.307 E.03612
G1 X161.391 Y129.132 E.02324
G1 X160.688 Y128.894 E.02329
G1 X160.009 Y128.596 E.02324
G1 X159.358 Y128.24 E.02328
G1 X158.807 Y127.874 E.02074
G1 X158.706 Y127.72 E.00576
G1 X158.412 Y127.425 E.01306
G1 X158.044 Y127.209 E.01336
G1 X157.647 Y127.092 E.01299
G1 X157.225 Y127.074 E.01323
G1 X156.815 Y127.16 E.01314
G1 X156.4 Y127.365 E.01451
G1 X156.031 Y127.712 E.01589
G1 X155.7 Y128.196 E.01836
G1 X155.533 Y128.558 E.01252
G1 X155.44 Y128.955 E.01277
G1 X155.43 Y129.206 E.00787
G1 X155.48 Y129.635 E.01356
G1 X155.628 Y130.058 E.01403
G1 X155.9 Y130.48 E.01575
G1 X156.305 Y130.835 E.01691
G1 X156.861 Y131.132 E.01975
G1 X157.304 Y131.424 E.01661
G1 X159.611 Y133.615 E.09976
G1 X159.946 Y133.996 E.01593
G1 X160.237 Y134.421 E.01613
G1 X160.471 Y134.878 E.01612
G1 X160.646 Y135.357 E.01597
G1 X160.759 Y135.859 E.01615
G1 X160.81 Y136.367 E.01601
G1 X160.796 Y136.879 E.01607
G1 X160.719 Y137.381 E.01592
G1 X160.578 Y137.872 E.016
G1 X160.381 Y138.338 E.01586
G1 X160.124 Y138.777 E.01595
G1 X159.798 Y139.203 E.01682
G1 X159.209 Y139.7 E.02416
G1 X158.558 Y140.169 E.02516
G1 X157.872 Y140.584 E.02514
G1 X157.156 Y140.946 E.02515
G1 X156.413 Y141.249 E.02515
G1 X155.648 Y141.495 E.02519
G1 X154.869 Y141.681 E.02512
G1 X154.097 Y141.802 E.02451
G1 X153.518 Y141.828 E.01817
G1 X153.298 Y141.956 E.00798
G1 X152.996 Y142.436 E.01778
G1 X152.866 Y142.91 E.01541
;WIDTH:0.420341
G1 X152.871 Y143.391 E.01508
;WIDTH:0.426754
G1 X153.198 Y144.457 E.03558
;WIDTH:0.415676
G1 X153.25 Y144.971 E.01603
;WIDTH:0.414773
G1 X153.189 Y145.518 E.01702
;WIDTH:0.421136
G1 X153.014 Y146.033 E.01711
;WIDTH:0.423648
G1 X152.787 Y146.414 E.01402
G1 X152.474 Y146.773 E.01509
;WIDTH:0.420628
G1 X152.008 Y147.115 E.01814
;WIDTH:0.416055
G1 X151.539 Y147.323 E.01593
;WIDTH:0.415794
G1 X150.997 Y147.436 E.01716
;WIDTH:0.421607
G1 X150.943 Y147.436 E.0017
G1 X150.897 Y147.82 F7200
;TYPE:Outer wall
;WIDTH:0.419999
G1 F1200
G1 X150.861 Y147.825 E.00114
G1 X150.353 Y147.795 E.01597
G1 X149.859 Y147.676 E.01591
G1 X149.391 Y147.471 E.01603
G1 X148.969 Y147.187 E.01594
G1 X148.603 Y146.831 E.01599
G1 X148.308 Y146.418 E.01593
G1 X148.089 Y145.959 E.01596
G1 X147.954 Y145.465 E.01603
G1 X147.91 Y144.959 E.01594
G1 X147.959 Y144.443 E.01625
G1 X148.143 Y143.852 E.01942
G1 X148.402 Y143.375 E.017
G1 X148.69 Y142.932 E.01658
G1 X148.861 Y142.52 E.01397
G1 X148.931 Y142.054 E.01477
G1 X148.885 Y141.646 E.01289
G1 X148.757 Y141.346 E.01023
G1 X148.372 Y141.249 E.01246
G1 X147.704 Y140.912 E.02345
G1 X146.997 Y140.483 E.02593
G1 X146.325 Y140.004 E.02588
G1 X145.692 Y139.469 E.02597
G1 X137.791 Y131.908 E.34292
G1 X137.665 Y131.855 E.00428
G1 X137.507 Y131.935 E.00555
G1 X133.703 Y137.304 E.20629
G1 X133.437 Y137.732 E.01583
G1 X133.2 Y138.25 E.01785
G1 X133.03 Y138.807 E.01825
G1 X132.911 Y139.577 E.02442
G1 X132.91 Y140.079 E.01577
G1 X133.063 Y142.759 E.08416
G1 X133.108 Y143.261 E.01578
G1 X133.215 Y143.661 E.01301
G1 X133.41 Y144.067 E.01409
G1 X133.8 Y144.545 E.01937
G1 X134.24 Y144.889 E.01749
G1 X134.642 Y145.081 E.014
G1 X134.98 Y145.171 E.01094
G1 X135.493 Y145.224 E.01617
G1 X137.642 Y144.991 E.0678
G1 X137.956 Y145.023 E.00989
G1 X138.14 Y145.169 E.00736
G1 X138.229 Y145.386 E.00735
G1 X138.198 Y145.618 E.00734
G1 X138.126 Y145.712 E.00369
G1 X137.949 Y145.871 E.00748
G1 X135.784 Y146.774 E.07354
G1 X135.29 Y146.891 E.01591
G1 X134.781 Y146.941 E.01605
G1 X134.269 Y146.92 E.01605
G1 X133.766 Y146.829 E.01604
G1 X133.279 Y146.669 E.01605
G1 X132.82 Y146.445 E.01603
G1 X132.393 Y146.161 E.01606
G1 X132.011 Y145.82 E.01606
G1 X131.683 Y145.434 E.01589
G1 X131.296 Y144.711 E.02569
G1 X130.967 Y143.952 E.02597
G1 X130.7 Y143.168 E.02594
G1 X130.501 Y142.363 E.02601
G1 X130.367 Y141.546 E.02596
G1 X130.304 Y140.721 E.02594
G1 X130.306 Y139.892 E.02599
G1 X130.379 Y139.066 E.02602
G1 X130.519 Y138.251 E.02593
G1 X130.726 Y137.447 E.02601
G1 X130.998 Y136.666 E.02595
G1 X131.334 Y135.908 E.02598
G1 X131.734 Y135.179 E.02606
G1 X135.282 Y129.272 E.21607
G1 X135.468 Y128.812 E.01556
G1 X135.585 Y128.336 E.01537
G1 X135.629 Y127.845 E.01543
G1 X135.603 Y127.354 E.01544
G1 X135.502 Y126.862 E.01573
G1 X135.331 Y126.392 E.01568
G1 X134.838 Y125.385 E.03518
G1 X134.405 Y124.348 E.03522
G1 X134.037 Y123.288 E.03518
G1 X133.734 Y122.208 E.03518
G1 X133.495 Y121.112 E.03517
G1 X133.335 Y120.083 E.03265
G1 X133.276 Y119.515 E.0179
G1 X133.213 Y118.809 E.02221
G1 X133.16 Y117.698 E.03487
G1 X132.8 Y116.976 E.0253
G1 X132.511 Y116.222 E.02533
G1 X132.292 Y115.444 E.02534
G1 X132.144 Y114.648 E.02538
G1 X132.072 Y113.842 E.02535
G1 X132.076 Y113.034 E.02536
G1 X132.168 Y112.117 E.02889
G1 X132.179 Y111.599 E.01625
G1 X132.068 Y111.086 E.01645
G1 X131.896 Y110.729 E.01242
G1 X131.662 Y110.412 E.01236
G1 X131.381 Y110.156 E.0119
G1 X131.08 Y109.624 E.01917
G1 X130.833 Y109.048 E.01966
G1 X130.648 Y108.449 E.01964
G1 X130.528 Y107.836 E.0196
M73 P3 R19
G1 X130.476 Y107.21 E.01969
G1 X130.489 Y106.584 E.01962
G1 X130.57 Y105.963 E.01965
G1 X130.707 Y105.393 E.01838
G1 X131.029 Y105.136 E.01292
G1 X131.527 Y104.867 E.01774
G1 X132.037 Y104.697 E.01685
G1 X132.586 Y104.616 E.01741
G1 X133.164 Y104.634 E.01813
G1 X133.715 Y104.775 E.01784
G1 X134.122 Y105.011 E.01476
G1 X134.408 Y105.357 E.01407
G1 X134.582 Y105.763 E.01384
G1 X134.606 Y106.208 E.01398
G1 X134.496 Y106.717 E.01632
G1 X134.546 Y107.414 E.02191
G1 X134.622 Y107.789 E.01199
G1 X134.809 Y108.414 E.02045
G1 X135.711 Y110.518 E.07178
G1 X135.939 Y111.091 E.01934
G1 X136.075 Y111.677 E.01886
G1 X136.114 Y112.182 E.01586
G1 X136.299 Y113.286 E.03512
G1 X136.548 Y114.328 E.03359
G1 X136.871 Y115.353 E.03369
G1 X137.106 Y115.989 E.02126
G1 X137.459 Y116.799 E.02771
G1 X137.89 Y117.647 E.02983
