; HEADER_BLOCK_START
; generated by OrcaSlicer 2.3.0 on 2025-08-08 at 11:10:46
; total layer number: 25
;_GP_TOTAL_LAYER_NUMBER_PLACEHOLDER
; filament_density: 1.24
; filament_diameter: 1.75
; max_z_height: 5.00
; HEADER_BLOCK_END

; THUMBNAIL_BLOCK_START

;
; THUMBNAIL_BLOCK_END

; THUMBNAIL_BLOCK_START

;
; THUMBNAIL_BLOCK_END

; external perimeters extrusion width = 0.40mm
; perimeters extrusion width = 0.44mm
; infill extrusion width = 0.45mm
; solid infill extrusion width = 0.38mm
; top infill extrusion width = 0.42mm
; first layer extrusion width = 0.42mm

; EXECUTABLE_BLOCK_START
M73 P0 R35
M201 X9000 Y9000 Z500 E5000
M203 X500 Y500 Z12 E120
M204 P1500 R1500 T1500
M205 X10.00 Y10.00 Z0.20 E2.50 ; sets the jerk limits, mm/sec
;TYPE:Custom
G28
G92 E0
G0 X300 Y5 Z50 F3600
M190 S42
M109 S195
G92 E-19
M106 P3 S255
G90
G21
M83 ; use relative distances for extrusion
M900 K0.031; Override pressure advance value
M106 S0
;LAYER_CHANGE
;Z:0.2
;HEIGHT:0.2
;BEFORE_LAYER_CHANGE
;0.2
G92 E0

G1 E-2 F2400
;TIMELAPSE_TAKE_FRAME

;_SET_FAN_SPEED_CHANGING_LAYER
M204 S500
M205 X8 Y8
G1 X118.698 Y102.946 F7200
G1 Z.6
G1 Z.2
G1 E2 F2400
;TYPE:Skirt
;WIDTH:0.42
G1 F3000
G1 X118.999 Y102.924 E.0089
G1 X181.084 Y102.925 E1.82981
G1 X182.237 Y103.015 E.0341
G1 X183.271 Y103.231 E.03112
G1 X184.27 Y103.573 E.03112
G1 X185.356 Y104.114 E.03576
G1 X186.23 Y104.705 E.03112
G1 X187.284 Y105.665 E.042
G1 X187.953 Y106.481 E.03112
G1 X188.592 Y107.513 E.03576
G1 X189.147 Y108.825 E.042
G1 X189.414 Y109.847 E.03112
G1 X189.554 Y110.893 E.03112
G1 X189.563 Y111.949 E.03112
G1 X189.443 Y112.998 E.03112
G1 X189.147 Y114.175 E.03576
G1 X188.592 Y115.487 E.042
G1 X188.044 Y116.39 E.03112
G1 X187.39 Y117.218 E.03112
G1 X186.633 Y117.966 E.03136
G1 X155.54 Y145.045 E1.21521
G1 X154.67 Y145.691 E.03194
G1 X153.415 Y146.366 E.042
G1 X152.271 Y146.769 E.03576
G1 X151.237 Y146.985 E.03112
G1 X150.343 Y147.068 E.02647
G1 X149.288 Y147.045 E.03112
G1 X147.577 Y146.726 E.05128
G1 X146.73 Y146.427 E.02647
G1 X145.781 Y145.965 E.03112
G1 X144.385 Y144.983 E.05033
G1 X113.078 Y117.702 E1.22386
G1 X112.047 Y116.519 E.04627
G1 X111.408 Y115.487 E.03576
G1 X110.853 Y114.175 E.042
G1 X110.5 Y112.632 E.04664
G1 X110.437 Y111.051 E.04664
G1 X110.704 Y109.332 E.05127
G1 X110.976 Y108.476 E.02647
G1 X111.408 Y107.513 E.03112
G1 X112.27 Y106.186 E.04664
G1 X113.361 Y105.04 E.04664
G1 X114.644 Y104.114 E.04664
G1 X116.076 Y103.439 E.04664
G1 X117.763 Y103.015 E.05127
G1 X118.659 Y102.949 E.02647
G1 X118.686 Y103.324 F7200
G1 F3000
G1 X118.999 Y103.301 E.00925
G1 X181.084 Y103.302 E1.82981
G1 X182.191 Y103.389 E.03273
G1 X183.179 Y103.597 E.02975
G1 X184.133 Y103.924 E.02975
G1 X185.157 Y104.434 E.03371
G1 X185.994 Y104.999 E.02975
G1 X187.013 Y105.927 E.04063
G1 X187.652 Y106.709 E.02975
G1 X188.254 Y107.681 E.03371
G1 X188.792 Y108.951 E.04063
G1 X189.046 Y109.927 E.02975
G1 X189.178 Y110.928 E.02975
G1 X189.178 Y112.072 E.03371
G1 X189.046 Y113.073 E.02975
G1 X188.792 Y114.049 E.02975
G1 X188.254 Y115.319 E.04063
G1 X187.73 Y116.181 E.02975
G1 X187.104 Y116.973 E.02975
G1 X186.386 Y117.682 E.02974
G1 X155.304 Y144.752 E1.21479
G1 X154.472 Y145.371 E.03056
G1 X153.257 Y146.023 E.04063
G1 X152.179 Y146.403 E.03371
G1 X151.191 Y146.611 E.02975
G1 X150.32 Y146.692 E.02578
G1 X149.311 Y146.669 E.02975
G1 X147.692 Y146.366 E.04854
G1 X146.867 Y146.076 E.02578
G1 X145.959 Y145.633 E.02975
G1 X144.632 Y144.698 E.04784
G1 X113.334 Y117.425 E1.22356
G1 X112.348 Y116.291 E.04427
G1 X111.746 Y115.319 E.03371
G1 X111.168 Y113.921 E.04459
G1 X110.873 Y112.574 E.04063
G1 X110.822 Y110.928 E.04854
G1 X111.066 Y109.435 E.04459
G1 X111.331 Y108.601 E.02578
G1 X111.746 Y107.681 E.02975
G1 X112.571 Y106.413 E.04459
G1 X113.615 Y105.318 E.04459
G1 X114.843 Y104.434 E.04459
G1 X116.212 Y103.791 E.04459
G1 X117.809 Y103.389 E.04854
G1 X118.646 Y103.327 E.02474
; printing object toothpaste_squeezer.stl id:15 copy 0
G1 E-1.4 F2400
;WIPE_START
G1 F3000
G1 X118.999 Y103.301 E-.21241
G1 X119.645 Y103.301 E-.38759
;WIPE_END
G1 X124.224 Y109.407 Z.6 F7200
G1 X149.806 Y143.525 Z.6
G1 Z.2
G1 E2 F2400
;TYPE:Inner wall
;WIDTH:0.419999
G1 F1200
G1 X149.367 Y143.497 E.01296
G1 X148.759 Y143.381 E.01824
G1 X148.108 Y143.156 E.02032
G1 X147.298 Y142.749 E.02669
G1 X146.689 Y142.309 E.02215
G1 X115.491 Y115.124 E1.2196
G1 X115.08 Y114.673 E.018
M73 P1 R35
G1 X114.558 Y113.885 E.02785
G1 X114.19 Y113.015 E.02784
G1 X114.045 Y112.441 E.01746
G1 X113.957 Y111.485 E.02827
G1 X113.994 Y110.88 E.01787
G1 X114.108 Y110.269 E.01831
G1 X114.296 Y109.678 E.01828
G1 X114.556 Y109.114 E.01831
G1 X114.883 Y108.585 E.01831
G1 X115.272 Y108.102 E.01828
G1 X115.708 Y107.679 E.01789
G1 X116.491 Y107.125 E.02828
G1 X117.021 Y106.861 E.01745
G1 X117.935 Y106.57 E.02827
G1 X118.457 Y106.489 E.01556
G1 X119.022 Y106.454 E.01669
G1 X180.594 Y106.455 E1.8147
G1 X181.415 Y106.486 E.02423
G1 X182.122 Y106.592 E.02108
G1 X182.604 Y106.727 E.01475
G1 X183.105 Y106.924 E.01586
G1 X183.657 Y107.23 E.0186
G1 X184.393 Y107.777 E.02704
G1 X184.798 Y108.189 E.01703
G1 X185.284 Y108.836 E.02384
G1 X185.583 Y109.392 E.0186
G1 X185.807 Y109.971 E.0183
G1 X185.955 Y110.559 E.01788
G1 X186.034 Y111.659 E.03248
G1 X186.006 Y112.12 E.01362
G1 X185.892 Y112.73 E.01831
G1 X185.704 Y113.322 E.0183
G1 X185.45 Y113.873 E.01788
G1 X184.927 Y114.663 E.02791
G1 X184.283 Y115.333 E.02737
G1 X153.254 Y142.35 E1.2126
G1 X152.62 Y142.791 E.02276
G1 X151.757 Y143.219 E.02839
G1 X151.138 Y143.405 E.01906
G1 X150.606 Y143.5 E.01593
G1 X149.986 Y143.537 E.01828
G1 X149.846 Y143.528 E.00414
G1 X149.752 Y143.907 F7200
G1 F1200
G1 X149.5 Y143.899 E.00744
G1 X148.84 Y143.797 E.01968
G1 X148.206 Y143.616 E.01943
G1 X147.548 Y143.313 E.02135
G1 X147.09 Y143.064 E.01537
G1 X146.447 Y142.598 E.0234
G1 X115.227 Y115.394 E1.22046
G1 X114.781 Y114.905 E.01949
G1 X114.224 Y114.064 E.02974
G1 X113.831 Y113.135 E.02973
G1 X113.672 Y112.504 E.01917
G1 X113.578 Y111.491 E.02999
G1 X113.619 Y110.834 E.01942
G1 X113.742 Y110.177 E.01969
G1 X113.944 Y109.542 E.01966
G1 X114.223 Y108.935 E.01969
G1 X114.575 Y108.367 E.01969
G1 X114.993 Y107.847 E.01966
G1 X115.466 Y107.388 E.01944
G1 X116.297 Y106.8 E.02999
G1 X116.879 Y106.511 E.01917
G1 X117.849 Y106.202 E.02999
G1 X118.504 Y106.1 E.01956
G1 X119.013 Y106.077 E.01501
G1 X181.059 Y106.078 E1.82869
G1 X181.834 Y106.143 E.0229
M73 P1 R34
G1 X182.484 Y106.285 E.01961
G1 X183.113 Y106.507 E.01968
G1 X183.703 Y106.801 E.01943
G1 X184.534 Y107.389 E.02999
G1 X184.912 Y107.755 E.01553
G1 X185.318 Y108.231 E.01841
G1 X185.607 Y108.64 E.01478
G1 X185.926 Y109.234 E.01986
G1 X186.167 Y109.856 E.01968
G1 X186.328 Y110.496 E.01943
G1 X186.411 Y111.682 E.03505
G1 X186.381 Y112.166 E.01431
G1 X186.258 Y112.823 E.01968
G1 X186.056 Y113.459 E.01968
G1 X185.78 Y114.057 E.01943
G1 X185.222 Y114.9 E.02978
G1 X184.543 Y115.606 E.02887
G1 X153.56 Y142.592 E1.21099
G1 X153.001 Y143.015 E.02064
G1 X152.105 Y143.496 E.02998
G1 X151.484 Y143.715 E.01942
G1 X150.831 Y143.858 E.01969
G1 X150.167 Y143.92 E.01966
G1 X149.792 Y143.908 E.01106
G1 X149.741 Y144.284 F7200
;TYPE:Outer wall
G1 F1200
G1 X149.465 Y144.275 E.00813
G1 X148.759 Y144.166 E.02105
G1 X148.075 Y143.971 E.02097
G1 X147.098 Y143.521 E.0317
G1 X146.63 Y143.212 E.01652
G1 X146.205 Y142.887 E.01578
G1 X114.963 Y115.664 E1.22131
G1 X114.483 Y115.138 E.02099
G1 X113.89 Y114.243 E.03163
G1 X113.472 Y113.255 E.03162
G1 X113.3 Y112.568 E.02088
G1 X113.2 Y111.497 E.0317
G1 X113.244 Y110.787 E.02096
G1 X113.375 Y110.085 E.02106
G1 X113.592 Y109.405 E.02103
G1 X113.89 Y108.756 E.02106
G1 X114.266 Y108.149 E.02106
G1 X114.714 Y107.593 E.02103
G1 X115.225 Y107.097 E.02098
G1 X116.103 Y106.476 E.0317
G1 X116.737 Y106.16 E.02088
G1 X117.762 Y105.834 E.0317
G1 X118.467 Y105.725 E.02101
G1 X119.004 Y105.7 E.01587
G1 X181.075 Y105.701 E1.82941
G1 X181.89 Y105.769 E.0241
M73 P2 R34
G1 X182.587 Y105.922 E.02103
G1 X183.261 Y106.159 E.02105
G1 X183.898 Y106.476 E.02097
G1 X184.776 Y107.098 E.0317
G1 X185.286 Y107.593 E.02097
G1 X185.624 Y108.009 E.01579
G1 X185.93 Y108.445 E.0157
G1 X186.269 Y109.076 E.02111
G1 X186.527 Y109.742 E.02105
G1 X186.7 Y110.432 E.02097
G1 X186.752 Y110.989 E.01649
G1 X186.787 Y111.705 E.02113
G1 X186.756 Y112.213 E.01499
G1 X186.625 Y112.915 E.02105
G1 X186.408 Y113.595 E.02105
G1 X186.111 Y114.242 E.02097
G1 X185.518 Y115.136 E.03164
G1 X184.804 Y115.879 E.03037
G1 X153.798 Y142.885 E1.21186
G1 X153.206 Y143.333 E.02189
G1 X152.258 Y143.842 E.0317
G1 X151.587 Y144.078 E.02096
G1 X150.889 Y144.231 E.02106
G1 X150.179 Y144.297 E.02103
G1 X149.781 Y144.285 E.01175
G1 E-1.4 F2400
;WIPE_START
G1 F1200
G1 X149.465 Y144.275 E-.1895
G1 X148.789 Y144.17 E-.4105
;WIPE_END
G1 X150.53 Y138.02 Z.6 F7200
G1 Z.2
G1 E2 F2400
;TYPE:Inner wall
G1 F1200
G1 X149.873 Y138.04 E.01938
G1 X149.315 Y138.023 E.01645
G1 X148.675 Y137.931 E.01905
G1 X148.221 Y137.853 E.01359
G1 X147.379 Y137.614 E.02581
G1 X146.463 Y137.234 E.02922
G1 X145.601 Y136.744 E.02922
G1 X145.098 Y136.387 E.01819
G1 X144.434 Y135.819 E.02574
G1 X143.763 Y135.093 E.02913
G1 X143.184 Y134.288 E.02922
G1 X142.709 Y133.418 E.02922
G1 X142.47 Y132.849 E.01819
G1 X142.204 Y132.017 E.02574
G1 X142.016 Y131.047 E.02913
G1 X141.948 Y130.058 E.02922
G1 X142.002 Y129.068 E.02922
G1 X142.177 Y128.092 E.02922
G1 X142.471 Y127.145 E.02922
G1 X142.878 Y126.242 E.02922
G1 X143.394 Y125.395 E.02922
G1 X144.01 Y124.618 E.02922
G1 X144.717 Y123.923 E.02922
G1 X145.504 Y123.32 E.02922
G1 X146.359 Y122.818 E.02922
G1 X147.269 Y122.425 E.02922
G1 X148.221 Y122.147 E.02922
G1 X149.199 Y121.988 E.02922
G1 X150.19 Y121.95 E.02922
G1 X150.714 Y121.978 E.01548
G1 X151.666 Y122.122 E.02837
G1 X152.621 Y122.386 E.02922
G1 X153.537 Y122.766 E.02922
G1 X154.399 Y123.256 E.02922
G1 X154.902 Y123.613 E.01819
G1 X155.566 Y124.181 E.02574
G1 X156.237 Y124.907 E.02913
G1 X156.816 Y125.712 E.02922
G1 X157.291 Y126.582 E.02922
G1 X157.53 Y127.151 E.01819
G1 X157.796 Y127.983 E.02574
G1 X157.984 Y128.953 E.02913
G1 X158.04 Y129.568 E.01819
G1 X158.04 Y130.441 E.02574
G1 X157.926 Y131.423 E.02913
G1 X157.691 Y132.386 E.02922
G1 X157.339 Y133.313 E.02922
G1 X156.877 Y134.19 E.02922
G1 X156.31 Y135.003 E.02922
G1 X155.647 Y135.74 E.02922
G1 X154.899 Y136.391 E.02922
G1 X154.076 Y136.944 E.02922
G1 X153.192 Y137.393 E.02922
G1 X152.259 Y137.729 E.02922
G1 X151.292 Y137.948 E.02922
G1 X150.618 Y138.018 E.01998
G1 X150.57 Y138.019 E.00141
G1 X150.519 Y137.644 F7200
G1 F1200
G1 X149.884 Y137.663 E.0187
G1 X149.326 Y137.646 E.01645
G1 X148.324 Y137.491 E.0299
G1 X147.482 Y137.251 E.02581
G1 X146.61 Y136.887 E.02785
G1 X145.789 Y136.418 E.02786
G1 X145.318 Y136.081 E.01705
G1 X144.68 Y135.534 E.02479
G1 X144.042 Y134.839 E.0278
G1 X143.492 Y134.07 E.02785
G1 X143.041 Y133.24 E.02786
G1 X142.818 Y132.706 E.01705
G1 X142.564 Y131.904 E.02478
G1 X142.387 Y130.978 E.0278
G1 X142.324 Y130.035 E.02785
G1 X142.378 Y129.091 E.02785
G1 X142.548 Y128.162 E.02785
G1 X142.83 Y127.26 E.02785
G1 X143.221 Y126.399 E.02785
G1 X143.715 Y125.594 E.02785
G1 X144.304 Y124.855 E.02785
G1 X144.98 Y124.194 E.02785
G1 X145.731 Y123.621 E.02785
G1 X146.547 Y123.144 E.02785
G1 X147.416 Y122.772 E.02785
G1 X148.324 Y122.509 E.02785
G1 X149.257 Y122.36 E.02785
G1 X150.202 Y122.327 E.02785
G1 X150.743 Y122.36 E.01599
G1 X151.608 Y122.494 E.0258
G1 X152.518 Y122.749 E.02785
G1 X153.39 Y123.113 E.02785
G1 X154.211 Y123.582 E.02786
G1 X154.682 Y123.919 E.01705
G1 X155.32 Y124.466 E.02479
G1 X155.958 Y125.161 E.0278
G1 X156.508 Y125.93 E.02785
G1 X156.959 Y126.76 E.02786
G1 X157.182 Y127.294 E.01705
G1 X157.436 Y128.096 E.02478
G1 X157.613 Y129.022 E.0278
G1 X157.664 Y129.599 E.01705
G1 X157.663 Y130.44 E.02478
G1 X157.552 Y131.376 E.0278
G1 X157.325 Y132.294 E.02785
G1 X156.988 Y133.177 E.02785
G1 X156.544 Y134.011 E.02785
G1 X156.002 Y134.785 E.02785
G1 X155.368 Y135.486 E.02785
G1 X154.653 Y136.104 E.02785
G1 X153.868 Y136.63 E.02785
G1 X153.024 Y137.055 E.02785
G1 X152.134 Y137.373 E.02785
G1 X151.212 Y137.58 E.02785
G1 X150.583 Y137.642 E.01861
G1 X150.559 Y137.643 E.00073
G1 X150.507 Y137.268 F7200
;TYPE:Outer wall
G1 F1200
G1 X149.896 Y137.287 E.01802
G1 X149.338 Y137.269 E.01645
G1 X148.427 Y137.128 E.02717
G1 X147.585 Y136.888 E.02581
G1 X146.757 Y136.539 E.02649
G1 X145.978 Y136.091 E.02649
G1 X145.539 Y135.776 E.01592
G1 X144.926 Y135.248 E.02383
G1 X144.32 Y134.585 E.02647
G1 X143.8 Y133.853 E.02649
G1 X143.374 Y133.061 E.02649
G1 X143.167 Y132.562 E.01592
G1 X142.924 Y131.791 E.02383
G1 X142.757 Y130.908 E.02647
G1 X142.701 Y130.012 E.02649
G1 X142.754 Y129.115 E.02649
G1 X142.918 Y128.231 E.02649
G1 X143.189 Y127.374 E.02649
G1 X143.564 Y126.557 E.02649
G1 X144.036 Y125.792 E.02649
G1 X144.598 Y125.091 E.02649
G1 X145.242 Y124.464 E.02649
G1 X145.958 Y123.922 E.02649
G1 X146.736 Y123.471 E.02649
G1 X147.563 Y123.119 E.02649
G1 X148.427 Y122.872 E.02649
G1 X149.315 Y122.733 E.02649
G1 X150.213 Y122.704 E.02649
G1 X150.685 Y122.733 E.01394
G1 X151.55 Y122.867 E.0258
G1 X152.415 Y123.112 E.02649
G1 X153.243 Y123.461 E.02649
G1 X154.022 Y123.909 E.02649
G1 X154.461 Y124.224 E.01592
G1 X155.074 Y124.752 E.02383
G1 X155.68 Y125.415 E.02647
G1 X156.2 Y126.147 E.02649
G1 X156.626 Y126.939 E.02649
G1 X156.833 Y127.438 E.01592
G1 X157.076 Y128.209 E.02383
G1 X157.243 Y129.092 E.02647
G1 X157.288 Y129.63 E.01592
G1 X157.286 Y130.438 E.02383
G1 X157.177 Y131.33 E.02647
G1 X156.959 Y132.202 E.02649
G1 X156.636 Y133.04 E.02649
G1 X156.212 Y133.833 E.02649
G1 X155.694 Y134.567 E.02649
G1 X155.09 Y135.232 E.02649
G1 X154.408 Y135.818 E.02649
G1 X153.66 Y136.316 E.02649
G1 X152.856 Y136.718 E.02649
G1 X152.009 Y137.018 E.02649
G1 X151.131 Y137.211 E.02649
G1 X150.549 Y137.267 E.01725
G1 X150.547 Y137.267 E.00004
G1 E-1.4 F2400
;WIPE_START
G1 F1200
G1 X149.896 Y137.287 E-.3909
G1 X149.548 Y137.276 E-.2091
;WIPE_END
G1 X143.537 Y132.572 Z.6 F7200
G1 X119.861 Y114.043 Z.6
G1 Z.2
G1 E2 F2400
;TYPE:Inner wall
G1 F1200
G1 X119.593 Y114.015 E.00793
G1 X118.881 Y113.753 E.02236
G1 X118.592 Y113.562 E.01021
G1 X118.232 Y113.213 E.01477
G1 X117.958 Y112.797 E.01469
G1 X117.824 Y112.5 E.00961
G1 X117.72 Y112.029 E.01422
G1 X117.708 Y111.524 E.01487
G1 X117.865 Y110.937 E.01793
G1 X118.032 Y110.561 E.01211
G1 X118.324 Y110.17 E.01439
G1 X118.721 Y109.858 E.01489
G1 X119.089 Y109.639 E.01262
G1 X119.616 Y109.488 E.01615
G1 X119.874 Y109.452 E.00768
G1 X180.043 Y109.447 E1.77335
G1 X180.55 Y109.514 E.01508
G1 X181.119 Y109.747 E.01812
G1 X181.408 Y109.938 E.01021
G1 X181.768 Y110.287 E.01477
G1 X181.952 Y110.536 E.00912
G1 X182.182 Y111.02 E.01579
G1 X182.288 Y111.576 E.0167
G1 X182.285 Y111.941 E.01073
G1 X182.175 Y112.505 E.01694
G1 X182.068 Y112.743 E.0077
G1 X181.793 Y113.181 E.01524
G1 X181.604 Y113.398 E.00847
G1 X181.198 Y113.715 E.0152
G1 X180.732 Y113.925 E.01506
G1 X180.043 Y114.053 E.02066
G1 X119.957 Y114.053 E1.7709
G1 X119.9 Y114.047 E.00168
G1 X119.853 Y113.659 F7200
G1 F1200
G1 X119.489 Y113.601 E.01089
G1 X119.028 Y113.406 E.01474
G1 X118.855 Y113.291 E.00613
G1 X118.495 Y112.942 E.01477
G1 X118.232 Y112.51 E.01492
G1 X118.097 Y112.026 E.01481
G1 X118.091 Y111.488 E.01585
G1 X118.262 Y110.934 E.0171
G1 X118.532 Y110.507 E.01488
G1 X118.948 Y110.158 E.01601
G1 X119.247 Y109.985 E.01017
G1 X119.807 Y109.829 E.01714
G1 X180.043 Y109.824 E1.77533
G1 X180.511 Y109.899 E.01399
M73 P3 R34
G1 X180.972 Y110.094 E.01474
G1 X181.145 Y110.209 E.00613
G1 X181.505 Y110.558 E.01477
G1 X181.768 Y110.99 E.01492
G1 X181.917 Y111.646 E.01982
G1 X181.914 Y111.871 E.00665
G1 X181.813 Y112.399 E.01585
G1 X181.473 Y112.98 E.01982
G1 X181.118 Y113.316 E.01441
G1 X180.651 Y113.556 E.01547
G1 X180.043 Y113.676 E.01828
G1 X119.957 Y113.676 E1.7709
G1 X119.893 Y113.666 E.00193
G1 X119.921 Y113.294 F7200
;TYPE:Outer wall
G1 F1200
G1 X119.636 Y113.254 E.0085
G1 X119.175 Y113.059 E.01474
G1 X118.757 Y112.672 E.01678
G1 X118.549 Y112.294 E.01272
G1 X118.473 Y112.006 E.00877
G1 X118.469 Y111.525 E.01417
G1 X118.621 Y111.048 E.01476
G1 X118.88 Y110.683 E.01318
G1 X119.279 Y110.381 E.01475
G1 X119.846 Y110.206 E.01749
